X:9451
T:Leather Breeches
M:2/4
L:1/16
C:Jim Magill
R:Breakdown
Z:<cfalt@trytel.com> www.trytel.com/~cfalt/Fiddle/CFtunes1.abc
K:G
|:"G"DGBG AGBG|DGBG AGEG|DGBc dedc|"D7"BGAF"G" G2G2|!
"G"DGBG AGBG|DGBG AGEG|DGBc dedg|"D7"bgaf "G"g2g2:|!
|:"G"Bd2e dBGA|Bd2e d2GA|Bd2e dBGB|"D7"edcB A2A2|!
"G"Bd2e dBGA|Bd2e d2GA|Bd2e dBGB|1"D7"edcB A2A2:|2"D7"dGAF "G"G2G2|]
